Adwaita++-Dark/devices/16/media-memory-sd.svg

<svg fill="none" height="16" viewBox="0 0 16 16" width="16" xmlns="http://www.w3.org/2000/svg">
  <path clip-rule="evenodd" d="m12.6788 7.70851c.1858.18674.2903.43924.291.70264l.0135 5.18225c.0007.2607-.1005.5114-.2819.6986l-.7014.7236h-8l-.69654-.7076c-.18443-.1873-.28766-.4398-.28735-.7027l.01394-11.60426c.00066-.55269.44955-1.00003 1.00224-.99879l4.97382.01115c.54989.00123.99559.44622.99779.9961l.0101 2.61136c.001.26295.1056.51492.291.70135zm-8.3788-5.70851c-.16569 0-.3.13432-.3.3v2.4c0 .16569.13431.3.3.3h.4c.16568 0 .3-.13431.3-.3v-2.4c0-.16568-.13432-.3-.3-.3zm1.7.3c0-.16568.13431-.3.3-.3h.4c.16568 0 .3.13432.3.3v2.4c0 .16569-.13432.3-.3.3h-.4c-.16569 0-.3-.13431-.3-.3zm2.3-.3c-.16569 0-.3.13432-.3.3v2.4c0 .16569.13431.3.3.3h.4c.16568 0 .3-.13431.3-.3v-2.4c0-.16568-.13432-.3-.3-.3z" fill="#e6ddff" fill-rule="evenodd"/>
</svg>

<svg width="16" height="16" viewBox="0 0 16 16" fill="none" xmlns="http://www.w3.org/2000/svg">
<path fill-rule="evenodd" clip-rule="evenodd" d="M12.6788 7.70851C12.8646 7.89525 12.9691 8.14775 12.9698 8.41115L12.9833 13.5934C12.984 13.8541 12.8828 14.1048 12.7014 14.292L12 15.0156H4L3.30346 14.308C3.11903 14.1207 3.0158 13.8682 3.01611 13.6053L3.03005 2.00104C3.03071 1.44835 3.4796 1.00101 4.03229 1.00225L9.00611 1.0134C9.556 1.01463 10.0017 1.45962 10.0039 2.0095L10.014 4.62086C10.015 4.88381 10.1196 5.13578 10.305 5.32221L12.6788 7.70851ZM4.3 2C4.13431 2 4 2.13432 4 2.3V4.7C4 4.86569 4.13431 5 4.3 5H4.7C4.86568 5 5 4.86569 5 4.7V2.3C5 2.13432 4.86568 2 4.7 2H4.3ZM6 2.3C6 2.13432 6.13431 2 6.3 2H6.7C6.86568 2 7 2.13432 7 2.3V4.7C7 4.86569 6.86568 5 6.7 5H6.3C6.13431 5 6 4.86569 6 4.7V2.3ZM8.3 2C8.13431 2 8 2.13432 8 2.3V4.7C8 4.86569 8.13431 5 8.3 5H8.7C8.86568 5 9 4.86569 9 4.7V2.3C9 2.13432 8.86568 2 8.7 2H8.3Z" fill="#E6DDFF"/>
</svg>
